src/assets/images/exclamation-mark.svg

<?xml version="1.0" encoding="iso-8859-1"?>
<!-- Generator: Adobe Illustrator 19.0.0, SVG Export Plug-In . SVG Version: 6.00 Build 0)  -->
<svg version="1.1" id="Layer_1" xmlns="http://www.w3.org/2000/svg" xmlns:xlink="http://www.w3.org/1999/xlink" x="0px" y="0px"
	 viewBox="0 0 286.054 286.054" style="enable-background:new 0 0 286.054 286.054;" xml:space="preserve">
<g>
	<path style="fill:#E2574C;" d="M143.027,0C64.04,0,0,64.04,0,143.027c0,78.996,64.04,143.027,143.027,143.027
		c78.996,0,143.027-64.022,143.027-143.027C286.054,64.04,222.022,0,143.027,0z M143.027,259.236
		c-64.183,0-116.209-52.026-116.209-116.209S78.844,26.818,143.027,26.818s116.209,52.026,116.209,116.209
		S207.21,259.236,143.027,259.236z M143.036,62.726c-10.244,0-17.995,5.346-17.995,13.981v79.201c0,8.644,7.75,13.972,17.995,13.972
		c9.994,0,17.995-5.551,17.995-13.972V76.707C161.03,68.277,153.03,62.726,143.036,62.726z M143.036,187.723
		c-9.842,0-17.852,8.01-17.852,17.86c0,9.833,8.01,17.843,17.852,17.843s17.843-8.01,17.843-17.843
		C160.878,195.732,152.878,187.723,143.036,187.723z"/>
</g>
<g>
</g>
<g>
</g>
<g>
</g>
<g>
</g>
<g>
</g>
<g>
</g>
<g>
</g>
<g>
</g>
<g>
</g>
<g>
</g>
<g>
</g>
<g>
</g>
<g>
</g>
<g>
</g>
<g>
</g>
</svg>

<?xml version="1.0" encoding="UTF-8"?>
<svg width="287px" height="287px" viewBox="0 0 287 287" version="1.1" xmlns="http://www.w3.org/2000/svg" xmlns:xlink="http://www.w3.org/1999/xlink">
    <!-- Generator: Sketch 43.1 (39012) - http://www.bohemiancoding.com/sketch -->
    <title>exclamation-mark</title>
    <desc>Created with Sketch.</desc>
    <defs></defs>
    <g id="Page-1" stroke="none" stroke-width="1" fill="none" fill-rule="evenodd">
        <g id="exclamation-mark" fill-rule="nonzero" fill="#FF0000">
            <path d="M143.027,0 C64.04,0 0,64.04 0,143.027 C0,222.023 64.04,286.054 143.027,286.054 C222.023,286.054 286.054,222.032 286.054,143.027 C286.054,64.04 222.022,0 143.027,0 Z M143.027,259.236 C78.844,259.236 26.818,207.21 26.818,143.027 C26.818,78.844 78.844,26.818 143.027,26.818 C207.21,26.818 259.236,78.844 259.236,143.027 C259.236,207.21 207.21,259.236 143.027,259.236 Z M143.036,62.726 C132.792,62.726 125.041,68.072 125.041,76.707 L125.041,155.908 C125.041,164.552 132.791,169.88 143.036,169.88 C153.03,169.88 161.031,164.329 161.031,155.908 L161.031,76.707 C161.03,68.277 153.03,62.726 143.036,62.726 Z M143.036,187.723 C133.194,187.723 125.184,195.733 125.184,205.583 C125.184,215.416 133.194,223.426 143.036,223.426 C152.878,223.426 160.879,215.416 160.879,205.583 C160.878,195.732 152.878,187.723 143.036,187.723 Z" id="Shape"></path>
        </g>
    </g>
</svg>
